X:1
T:I Am Still with Thee
T:I Am Still with Thee
T:John Harrison Tenney
T:Eden Reeder Latta, 1880
T:Public Domain Courtesy of the Cyber Hymnal™
C:John Harrison Tenney
Z:Public Domain
Z:Courtesy of the Cyber Hymnal™
%%score ( 1 2 ) ( 3 4 )
L:1/8
Q:1/4=90
M:2/4
K:Eb
V:1 treble 
V:2 treble 
V:3 bass 
V:4 bass 
V:1
 [EG]>[EG] [FB][DA] | [EG]3 [EG] | [Ec]2 (BG) | [DF]4 | [EG]>[EG] [FB][DA] | [EG]3 [CF] | %6
w: 1.~I am still with|Thee, Wher-|e’er I *|stray;|I am still with|Thee, By|
w: 2.~I am still with|Thee, In|bliss or *|woe;|I am still with|Thee, I|
w: 3.~I am still with|Thee, Tho’|far I *|rove;|I am still with|Thee, And|
w: 4.~I am still with|Thee, Tho’|from my *|sight|Thou art hid- den|still By|
 [B,E]2 [B,D]2 | [B,E]4 | [DF]>[DF] [FB][Fc] | [Fd]3 [Fd] | [Fe]2 [Fd]2 | [Fc]4 | %12
w: night and|day;|On the morn- ing’s|wings Tho’|I re-|pair|
w: joy- ous|know;|On Thy arm of|might My|soul shall|lean,|
w: feel Thy|love;|In each try- ing|hour Be|Thou my|friend,|
w: day and|night;|When the vale of|death My|feet shall|near,|
 [DB]>[DB] [Fc][Fc] | [Fd]3 [Gc] | [FB]2 [E=A]2 | [DB]4 ||"^Refrain" [EG]>[EG] [FB][DA] | %17
w: To the far- thest|bound, The|Lord is|there!||
w: When the storm is|loud, Or|sky se-|rene!|In that home a-|
w: And my jour- ney|thro’ My|steps at-|tend.||
w: May Thy pre- sence|quell My|ev- ery|fear.||
 [EG]3 [EG] | [Ec]2 (BG) | [DF]3 [DF] | [EG]2 ([DA][EB]) | [Ec]3 [Ee] | [EG]2 [DF]2 | E4 |] %24
w: |||||||
w: bove, Oh,|let me *|be For-|ev- er- *|more, Dear|Lord, with|Thee.|
w: |||||||
w: |||||||
V:2
 x4 | x4 | x2 E2 | x4 | x4 | x4 | x4 | x4 | x4 | x4 | x4 | x4 | x4 | x4 | x4 | x4 || x4 | x4 | %18
 x2 E2 | x4 | x4 | x4 | x4 | E4 |] %24
V:3
 [E,B,]>[E,B,] [D,B,][B,,B,] | [E,B,]3 [E,B,] | [A,,A,]2 (G,B,) | [B,,B,]4 | %4
w: ~ ~ ~ ~|~ ~|~ ~ *|~|
 [E,B,]>[E,B,] [D,B,][B,,B,] | [E,B,]3 [A,,A,] | [B,,G,]2 [B,,F,]2 | [E,G,]4 | %8
w: ~ ~ ~ ~|~ ~|~ ~|~|
 [B,,B,]>[B,,B,] [D,B,][F,=A,] | B,3 B, | [=A,C]2 B,2 | [F,=A,]4 | [G,B,]>[G,B,] [F,=A,][F,A,] | %13
w: ~ ~ ~ ~|~ ~|~ ~|~|~ ~ ~ ~|
 B,3 [E,E] | [F,D]2 [F,C]2 | [B,,B,]4 || [E,B,]>[E,B,] [D,B,][B,,B,] | [E,B,][E,B,] [E,B,][E,B,] | %18
w: ~ ~|~ ~|~|In that home, that|home a- bove, Oh,|
 [A,,A,]2 [E,G,][E,B,] | [B,,B,]>[B,,B,] [B,,B,][B,,B,] | [E,B,]2 [F,B,][F,B,] | A,>_A, _A,[=A,C] | %22
w: let me, dear|Fa- ther, be For-|ev- er, for-|ev- er- more, Dear|
 B,2 [B,,A,]2 | [E,G,]4 |] %24
w: Lord, with|Thee.|
V:4
 x4 | x4 | x2 E,2 | x4 | x4 | x4 | x4 | x4 | x4 | B,3 B, | x2 B,2 | x4 | x4 | B,3 x | x4 | x4 || %16
 x4 | x4 | x4 | x4 | x4 | =A,>=A, =A, x | B,2 x2 | x4 |] %24

